X: 762
T: Corney is Coming   #2
R: reel
%S: s:3 b:13(5+4+4)
B: Francis O'Neill: "The Dance Music of Ireland" (1907) #762
Z: Frank Nordberg - http://www.musicaviva.com
F: http://www.musicaviva.com/abc/tunes/ireland/oneill-1001/0762/oneill-1001-0762-1.abc
N: Compacted via repeats with multiple endings, and dropping the slurs [JC]
M: C|
L: 1/8
K: D
"^A"|: c | Addc defd | cAGF EFGE | Dddc defa |[1 gece fde :|[2 gecd edd |]
"^B"[| c | defg afdB | cdef gecA | defg agfa | gecd edd ||
"^C"|| f | afdf afdf | gece gfge | defg abaf | gecd edd |]
